svgs/sharp-solid/explosion.svg

<svg xmlns="http://www.w3.org/2000/svg" viewBox="0 0 576 512"><!--! Font Awesome Pro 7.1.0 by @fontawesome - https://fontawesome.com License - https://fontawesome.com/license (Commercial License) Copyright 2025 Fonticons, Inc. --><path fill="currentColor" d="M312-32l-48 0 0 96 48 0 0-96zM144 368l-144-48 82.3 96 115.2 0c13.2-37.3 48.7-64 90.5-64s77.4 26.7 90.5 64l115.2 0 82.3-96-144 48 112-368-208 296-24-168-48 0-24 176-144-112 48 176zM24 464l-24 0 0 48 576 0 0-48-552 0z"/></svg>

<svg xmlns="http://www.w3.org/2000/svg" viewBox="0 0 576 512"><!--! Font Awesome Pro 6.6.0 by @fontawesome - https://fontawesome.com License - https://fontawesome.com/license (Commercial License) Copyright 2024 Fonticons, Inc. --><path d="M144 368L0 320l82.3 96 115.2 0c13.2-37.3 48.7-64 90.5-64s77.4 26.7 90.5 64l115.2 0L576 320 432 368 544 0 336 296 312 128l-48 0L240 304 96 192l48 176zM312 0L264 0l0 24 0 48 0 24 48 0 0-24 0-48 0-24zM32 448L0 448l0 64 32 0 512 0 32 0 0-64-32 0L32 448z"/></svg>
